X: 135
T:La Comete
M:3/8
L:1/8
S:Achille, Birkenhead Priory, 10/7/99
R:Bourree
Z:Steve Mansfield 12/3/00
K:D
G>FG | (3EFG E | Dd^c | dAF | G>FG |
(3EFG E | DGE | D3 :: E/F/GE | A3 | BAG |
A2B/c/ | dcB | AGF | EDE |1 F2D :|2 D3 ||

